**harm	**harte	**timestamp	**phrase	**leadinstrument	**kern
*M4/4	*M4/4	*	*	*	*
*G:	*G:	*	*	*	*G:
1r;	N	0	.	r	1r;
=1	=1	=1	=1	=1	=1
*>A_instrumental	*>A_instrumental	*>A_instrumental	*>A_instrumental	*>A_instrumental	*>A_instrumental
1Im7	G:7	0.279	newline	trumpet	1G 1b 1dd 1ff#
=2	=2	=2	=2	=2	=2
1Im7	G:7	1.773	.	trumpet	1G 1b 1dd 1ff#
=3	=3	=3	=3	=3	=3
1Im7	G:7	3.267	.	trumpet	1G 1b 1dd 1ff#
=4	=4	=4	=4	=4	=4
1Im7	G:7	4.761	.	trumpet	1G 1b 1dd 1ff#
=5	=5	=5	=5	=5	=5
1IVm7	C:7	6.255	newline	trumpet	1C 1e 1g 1b
=6	=6	=6	=6	=6	=6
1IVm7	C:7	7.682	.	trumpet	1C 1e 1g 1b
=7	=7	=7	=7	=7	=7
1Im7	G:7	9.108	.	trumpet	1G 1b 1dd 1ff#
=8	=8	=8	=8	=8	=8
1Im7	G:7	10.535	.	trumpet	1G 1b 1dd 1ff#
=9	=9	=9	=9	=9	=9
1V7	D:7	11.961	newline	trumpet	1D 1f# 1a 1cc
=10	=10	=10	=10	=10	=10
1IVm7	C:7	13.378	.	trumpet	1C 1e 1g 1b
=11	=11	=11	=11	=11	=11
1Im7	G:7	14.795	.	trumpet	1G 1b 1dd 1ff#
=12	=12	=12	=12	=12	=12
1Im7	G:7	16.211	.	trumpet	1G 1b 1dd 1ff#
=13	=13	=13	=13	=13	=13
*>A_instrumental	*>A_instrumental	*>A_instrumental	*>A_instrumental	*>A_instrumental	*>A_instrumental
1Im7	G:7	17.628	newline	guitar	1G 1b 1dd 1ff#
=14	=14	=14	=14	=14	=14
1Im7	G:7	19.069	.	guitar	1G 1b 1dd 1ff#
=15	=15	=15	=15	=15	=15
1Im7	G:7	20.509	.	guitar	1G 1b 1dd 1ff#
=16	=16	=16	=16	=16	=16
1Im7	G:7	21.949	.	guitar	1G 1b 1dd 1ff#
=17	=17	=17	=17	=17	=17
1IVm7	C:7	23.39	newline	guitar	1C 1e 1g 1b
=18	=18	=18	=18	=18	=18
1IVm7	C:7	24.849	.	guitar	1C 1e 1g 1b
=19	=19	=19	=19	=19	=19
1Im7	G:7	26.309	.	guitar	1G 1b 1dd 1ff#
=20	=20	=20	=20	=20	=20
1Im7	G:7	27.769	.	guitar	1G 1b 1dd 1ff#
=21	=21	=21	=21	=21	=21
1V7	D:7	29.228	newline	guitar	1D 1f# 1a 1cc
=22	=22	=22	=22	=22	=22
1IVm7	C:7	30.682	.	guitar	1C 1e 1g 1b
=23	=23	=23	=23	=23	=23
1Im7	G:7	32.135	.	guitar	1G 1b 1dd 1ff#
=24	=24	=24	=24	=24	=24
1Im7	G:7	33.588	.	guitar	1G 1b 1dd 1ff#
=25	=25	=25	=25	=25	=25
*>B_verse	*>B_verse	*>B_verse	*>B_verse	*>B_verse	*>B_verse
1Im7	G:7	35.042	newline	voice	1G 1b 1dd 1ff#
=26	=26	=26	=26	=26	=26
1Im7	G:7	36.496	.	voice	1G 1b 1dd 1ff#
=27	=27	=27	=27	=27	=27
1Im7	G:7	37.951	.	voice	1G 1b 1dd 1ff#
=28	=28	=28	=28	=28	=28
1Im7	G:7	39.406	.	voice	1G 1b 1dd 1ff#
=29	=29	=29	=29	=29	=29
1IVm7	C:7	40.861	newline	voice	1C 1e 1g 1b
=30	=30	=30	=30	=30	=30
1IVm7	C:7	42.333	.	voice	1C 1e 1g 1b
=31	=31	=31	=31	=31	=31
1Im7	G:7	43.806	.	voice	1G 1b 1dd 1ff#
=32	=32	=32	=32	=32	=32
1Im7	G:7	45.279	.	voice	1G 1b 1dd 1ff#
=33	=33	=33	=33	=33	=33
1V7	D:7	46.751	newline	voice	1D 1f# 1a 1cc
=34	=34	=34	=34	=34	=34
1IVm7	C:7	48.204	.	voice	1C 1e 1g 1b
=35	=35	=35	=35	=35	=35
1Im7	G:7	49.658	.	voice	1G 1b 1dd 1ff#
=36	=36	=36	=36	=36	=36
1Im7	G:7	51.111	.	voice	1G 1b 1dd 1ff#
=37	=37	=37	=37	=37	=37
*>B_verse	*>B_verse	*>B_verse	*>B_verse	*>B_verse	*>B_verse
1Im7	G:7	52.564	newline	voice	1G 1b 1dd 1ff#
=38	=38	=38	=38	=38	=38
1Im7	G:7	54.041	.	voice	1G 1b 1dd 1ff#
=39	=39	=39	=39	=39	=39
1Im7	G:7	55.517	.	voice	1G 1b 1dd 1ff#
=40	=40	=40	=40	=40	=40
1Im7	G:7	56.994	.	voice	1G 1b 1dd 1ff#
=41	=41	=41	=41	=41	=41
1IVm7	C:7	58.47	newline	voice	1C 1e 1g 1b
=42	=42	=42	=42	=42	=42
1IVm7	C:7	59.927	.	voice	1C 1e 1g 1b
=43	=43	=43	=43	=43	=43
1Im7	G:7	61.384	.	voice	1G 1b 1dd 1ff#
=44	=44	=44	=44	=44	=44
1Im7	G:7	62.841	.	voice	1G 1b 1dd 1ff#
=45	=45	=45	=45	=45	=45
1V7	D:7	64.298	newline	voice	1D 1f# 1a 1cc
=46	=46	=46	=46	=46	=46
1IVm7	C:7	65.767	.	voice	1C 1e 1g 1b
=47	=47	=47	=47	=47	=47
1Im7	G:7	67.236	.	voice	1G 1b 1dd 1ff#
=48	=48	=48	=48	=48	=48
1Im7	G:7	68.705	.	voice	1G 1b 1dd 1ff#
=49	=49	=49	=49	=49	=49
*>B_verse	*>B_verse	*>B_verse	*>B_verse	*>B_verse	*>B_verse
1Im7	G:7	70.174	newline	voice	1G 1b 1dd 1ff#
=50	=50	=50	=50	=50	=50
1Im7	G:7	71.619	.	voice	1G 1b 1dd 1ff#
=51	=51	=51	=51	=51	=51
1Im7	G:7	73.063	.	voice	1G 1b 1dd 1ff#
=52	=52	=52	=52	=52	=52
1Im7	G:7	74.507	.	voice	1G 1b 1dd 1ff#
=53	=53	=53	=53	=53	=53
1IVm7	C:7	75.952	newline	voice	1C 1e 1g 1b
=54	=54	=54	=54	=54	=54
1IVm7	C:7	77.396	.	voice	1C 1e 1g 1b
=55	=55	=55	=55	=55	=55
1Im7	G:7	78.841	.	voice	1G 1b 1dd 1ff#
=56	=56	=56	=56	=56	=56
1Im7	G:7	80.285	.	voice	1G 1b 1dd 1ff#
=57	=57	=57	=57	=57	=57
1V7	D:7	81.729	newline	voice	1D 1f# 1a 1cc
=58	=58	=58	=58	=58	=58
1IVm7	C:7	83.199	.	voice	1C 1e 1g 1b
=59	=59	=59	=59	=59	=59
1Im7	G:7	84.669	.	voice	1G 1b 1dd 1ff#
=60	=60	=60	=60	=60	=60
1Im7	G:7	86.139	.	voice	1G 1b 1dd 1ff#
=61	=61	=61	=61	=61	=61
*>A_instrumental	*>A_instrumental	*>A_instrumental	*>A_instrumental	*>A_instrumental	*>A_instrumental
1Im7	G:7	87.609	newline	trumpet	1G 1b 1dd 1ff#
=62	=62	=62	=62	=62	=62
1Im7	G:7	89.083	.	trumpet	1G 1b 1dd 1ff#
=63	=63	=63	=63	=63	=63
1Im7	G:7	90.557	.	trumpet	1G 1b 1dd 1ff#
=64	=64	=64	=64	=64	=64
1Im7	G:7	92.031	.	trumpet	1G 1b 1dd 1ff#
=65	=65	=65	=65	=65	=65
1IVm7	C:7	93.505	newline	trumpet	1C 1e 1g 1b
=66	=66	=66	=66	=66	=66
1IVm7	C:7	94.975	.	trumpet	1C 1e 1g 1b
=67	=67	=67	=67	=67	=67
1Im7	G:7	96.445	.	trumpet	1G 1b 1dd 1ff#
=68	=68	=68	=68	=68	=68
1Im7	G:7	97.915	.	trumpet	1G 1b 1dd 1ff#
=69	=69	=69	=69	=69	=69
1V7	D:7	99.385	newline	trumpet	1D 1f# 1a 1cc
=70	=70	=70	=70	=70	=70
1IVm7	C:7	100.849	.	trumpet	1C 1e 1g 1b
=71	=71	=71	=71	=71	=71
1Im7	G:7	102.313	.	trumpet	1G 1b 1dd 1ff#
=72	=72	=72	=72	=72	=72
1Im7	G:7	103.777	.	trumpet	1G 1b 1dd 1ff#
=73	=73	=73	=73	=73	=73
*>A_instrumental	*>A_instrumental	*>A_instrumental	*>A_instrumental	*>A_instrumental	*>A_instrumental
1Im7	G:7	105.241	newline	guitar	1G 1b 1dd 1ff#
=74	=74	=74	=74	=74	=74
1Im7	G:7	106.76	.	guitar	1G 1b 1dd 1ff#
=75	=75	=75	=75	=75	=75
1Im7	G:7	108.279	.	guitar	1G 1b 1dd 1ff#
=76	=76	=76	=76	=76	=76
1Im7	G:7	109.798	.	guitar	1G 1b 1dd 1ff#
=77	=77	=77	=77	=77	=77
1IVm7	C:7	111.317	newline	guitar	1C 1e 1g 1b
=78	=78	=78	=78	=78	=78
1IVm7	C:7	112.823	.	guitar	1C 1e 1g 1b
=79	=79	=79	=79	=79	=79
1Im7	G:7	114.33	.	guitar	1G 1b 1dd 1ff#
=80	=80	=80	=80	=80	=80
1Im7	G:7	115.836	.	guitar	1G 1b 1dd 1ff#
=81	=81	=81	=81	=81	=81
1V7	D:7	117.342	newline	guitar	1D 1f# 1a 1cc
=82	=82	=82	=82	=82	=82
1IVm7	C:7	118.761	.	guitar	1C 1e 1g 1b
=83	=83	=83	=83	=83	=83
1Im7	G:7	120.181	.	guitar	1G 1b 1dd 1ff#
=84	=84	=84	=84	=84	=84
1Im7	G:7	121.6	.	guitar	1G 1b 1dd 1ff#
1r;	N	123.019	.	r	1r;
1r;	N	126.433	.	r	1r;
*-	*-	*-	*-	*-	*-
!!!OTL: Treat Her Right
!!!COC: Roy Head
!!!BillboardChartDate: 1965/09/18
!!!BillboardPeak: 2
!!!BillboardWeeksOnChart: 11
!!!SampleTargetRank: 25
!!!SampleActualRank: 26
!!!SampleID#: 1125
!!!RDF**harmony: **recip + pitch class of root + harmonic quality
!!!RDF**harte: Chris Harte's syntax, used by MIREX
!!!RDF**phrase: newline = linebreak in original McGill transcription
!!!RDF**timestamp: McGill audio timestamp in seconds
!!!RDF**leadinstrument: original McGill primary instrumentation annotation
!!!RDT: 2017/01/12/
!!!ENC: Nathaniel Condit-Schultz
!!!EST: Awating manual error checking and editing.
